X:1
T:Mug of Brown Ale
M:6/8
L:1/8
R:Jig
B: The Portland Collection
K:Ador
[| "Am"eAA fAA | gfg afe | "G"dBA GFG | B2A B^cd | "Am"eAA fAA | gfg afe | "G"dBB gBB | BAG "Am"A3 |]
[| "Am"efg a3  | aba afe | "G"def g3  | gba gfe  | "Am"efg a3  | aba afe | "G"dBB gBB | BAG "Am"A3 |]
